X: 1
T: Blackwater Tide
P: Piffero primo a0538a
O: Greg Bacon
%R: reel
F: http://ancients.sudburymuster.org/mus/ssp/pdf/blackwaterF.pdf
Z: 2019 John Chambers <jc:trillian.mit.edu>
N: One of the SAFD copies has the initial F pickup note; another doesn't.
M: 2/4
L: 1/16
K: G
F4 |:\
G2EG DGEG | G2EG DGBA | GABc dz ge | dBcA BGED | G2EG DGEG |
G2EG DGBA | GABc dz ge |1 dBAB G3F :|2 dBAB G2 |: z2 | Bdef gz ge | dBcA BGED |
Bdef gz gf | edef g3e | d2dB c2cA | BABc BGED | GABc dege | dBAB G2 :|


